dist/images/svg/pin.svg

<?xml version="1.0" encoding="UTF-8"?>
<svg width="24px" height="24px" viewBox="0 0 24 24" version="1.1" xmlns="http://www.w3.org/2000/svg" xmlns:xlink="http://www.w3.org/1999/xlink">
    <!-- Generator: Sketch 49.1 (51147) - http://www.bohemiancoding.com/sketch -->
    <title>Elements / Icons / S / Pin</title>
    <desc>Created with Sketch.</desc>
    <defs>
        <path d="M19.5558122,4.42438776 C18.4174041,3.28597959 17.1401388,2.7200449 16.6757755,3.14084082 L10.2853714,8.86351837 C9.10556327,7.83520408 7.32146939,7.87028571 6.19760816,8.99333878 C6.00846122,9.18277959 5.90185714,9.43951837 5.90185714,9.70735102 C5.90185714,9.97522041 6.00842449,10.2320327 6.19760816,10.4211429 L9.09259592,13.3158735 L3.14333878,20.0311959 C2.95422857,20.2442204 2.95004082,20.5695429 3.1438898,20.7879673 C3.35287347,21.0231796 3.71316735,21.0448163 3.94896735,20.835502 L10.6558041,14.879449 L10.9438041,15.1670449 L12.4352694,16.6585837 L13.5496531,17.7727102 C13.7388367,17.9617837 13.9955755,18.0680204 14.2631878,18.0680204 C14.5305429,18.0680204 14.7874653,17.9615633 14.9765388,17.7720857 C16.0991878,16.6489959 16.1345633,14.8642408 15.1065429,13.6846163 L20.8079143,7.33579592 C21.2764653,6.87429796 20.7078857,5.57613061 19.5558122,4.42438776 Z" id="path-1"></path>
    </defs>
    <g id="Symbols" stroke="none" stroke-width="1" fill="none" fill-rule="evenodd">
        <g id="Elements-/-Icons-/-S-/-Pin">
            <mask id="mask-2" fill="white">
                <use xlink:href="#path-1"></use>
            </mask>
            <use id="Shape" fill="#40b550" fill-rule="nonzero" xlink:href="#path-1"></use>
        </g>
    </g>
</svg>

<svg width="24" height="24" viewBox="0 0 24 24" xmlns="http://www.w3.org/2000/svg" xmlns:xlink="http://www.w3.org/1999/xlink"><title>Elements / Icons / S / Pin</title><defs><path d="M19.556 4.424c-1.139-1.138-2.416-1.704-2.88-1.283l-6.39 5.723a2.994 2.994 0 0 0-4.088.13 1.01 1.01 0 0 0 0 1.427l2.895 2.895-5.95 6.715a.57.57 0 0 0 .806.805l6.707-5.957.288.288 1.491 1.492 1.115 1.114a1.01 1.01 0 0 0 1.427 0 2.995 2.995 0 0 0 .13-4.088l5.7-6.35c.47-.46-.1-1.759-1.251-2.91z" id="a"/></defs><use fill="#40b550" xlink:href="#a"/></svg>
